X: 20
T: No_119_"Let_Us_Go_After_Crabs".krn
N: Derived from No_119_"Let_Us_Go_After_Crabs".krn
%%abc-version 2.0
%%abcx-abcm2ps-target-version 5.9.1 (29 Sep 2008)
%%abc-creator hum2abc beta
%%abcx-conversion-date 2019/03/15 08:36:13
%%humdrum-veritas 16847114
%%humdrum-veritas-data 2144506307
%%linebreak <none>
%%barnumbers 0
L: 1/8
M: 3/4
K: G clef=bass
[K:clef=bass][M:3/4]C2CCC2 ||  
[M:2/4]C4 | 
z2CD | 
D4 ]|:  
D4 ||  
[M:7/8]CCCCCD2 ||  
[M:2/4]D4 | 
z2EE | 
D2CC | 
B,2D z | 
D3/C/ DC/C/ | 
B,4- | 
B,2z2 | 
B,2DD/C/ ||  
[M:3/4]B,6 | 
DB,/B,/B,2B, z | 
B,6 | 
B,2B,B,B,2 | 
B,6 | 
B,D DD-D2 :|]  
B,6 |]  



